X:1
T:James Gibb editions
T:Tu dorado cabello - Guerrero
T:#
%%score [ 1 2 3 ]
L:1/8
Q:1/4=108
M:4/4
K:F
V:1 treble nm="Soprano I" snm="S I"
V:2 treble nm="Soprano II" snm="S II"
V:3 treble nm="Alto" snm="A"
V:1
"^Tu dorado cabello""^Francisco Guerrero\n(1528-99)" A3 A B2 AB | (c B2 A/G/) F2 z d- | %2
w: Tu do- ra- do ca-|be- * * * llo, tu|
 dd _e2 d3 d | c2 BB BB G2 | F2 z d>dd c2 |[M:4/4] Ad>dc Bc A2 | G8 :| B3 c A d2 B | cd>dd cB A2 | %9
w: * do- ra- do ca-|be- llo, za- ga- la mi-|a, za- ga- la mi-|a, me tie- ne fuer- te~~a- ta-|do.|Suél- ta- me, suél- ta-|me, suél- ta- me, pues el al-|
 B2 G3 G c2 | =B4 z4 |: z GBB A>B (c2 | B2) A2 z DAA | c>B A2 | z Acd- d/d/c d2 |1 c3 B- BB A2 | %16
w: ma ya te~~he da-|do;|y si~~es- to no hi- cie\-|* res, a- mor, me|que- ja- ré,|a- mor, me * que- ja- ré|cuan cru\- * el e-|
 G2 z2 z2 :|2[Q:1/4=107] c2- |[Q:1/4=105] c[Q:1/4=104] B2[Q:1/4=102] B[Q:1/4=100] A4 | %19
w: res,|cuan|* cru- el e-|
[Q:1/4=95] G8 |] %20
w: res.|
V:2
 F3 F G2 FF | G4 A2 z B- | BB A2 B3 B | A2 Bd dd c2 | A2 z B>BB G2 |[M:4/4] FB>BA GG ^F2 | G8 :| %7
w: Tu do- ra- do ca-|be- llo, tu|* do- ra- do ca-|be- llo, za- ga- la mi-|a, za- ga- la mi-|a, me tie- ne fuer- te~~a- ta-|do.|
 G3 _E F B2 G | GB>BB AG F2 | D2 E3 D (E^F) | G4 z DFF |: E>F G2 D F2 E | G2 FD AA c>B | A2 z c | %14
w: Suél- ta- me, suél- ta-|me, suél- ta- me, pues el al-|ma ya te~~he da\- *|do; y si~~es- to|no hi- cie- res, no hi-|cie- res, a- mor, me que- ja-|ré, a-|
 c2 z A- A/A/G A2 |1 A2 AF (G3 ^F) | G2 z D FF :|2 A2 | AF (G4 ^F2) | G8 |] %20
w: mor, me * que- ja- ré|cuan cru- el e\- *|res, y si~~es- to|cuan|cru- el e\- *|res.|
V:3
 D3 D G,2 DD | _E4 D2 z B,- | B,B, C2 B,3 B, | F2 B,B, B,B, C2 | D2 z B,>B,B, C2 | %5
w: Tu do- ra- do ca-|be- llo, tu|* do- ra- do ca-|be- llo, za- ga- la mi-|a, za- ga- la mi-|
[M:4/4] DB,>B,F, G,C D2 | G,8 :| _E3 C D B,2 E | CB,>B,B, F,G, D2 | G,2 C3 B, A,2 | %10
w: a, me tie- ne fuer- te~~a- ta-|do.|Suél- ta- me, suél- ta-|me, suél- ta- me, pues el al-|ma ya te~~he da-|
 G,2 z G, B,B, A,>B, |: C2 G,2 z4 | z G,DD FF F2 | z F F2 | z FFD F_E D2 |1 A,2 A,B, G,2 D2 | %16
w: do; y si~~es- to no hi-|cie- res,|a- mor, me que- ja- ré,|a- mor,|a- mor, me que- ja- ré|cuan cru- el e- res,|
 z G,B,B, A,>B, :|2 A,2- | A,B, G,2 D4 | G,8 |] %20
w: y si~~es- to no hi-|cuan|* cru- el e-|res.|

